X: 1907
T: Sweeping the Snow From the Door
B: australian traditional tunes wiki
M:3/4
L:1/8
Q: 1/4=100
K:G
V:1 
dB||"G"G2B2dB|G2B2g2|"D"f4e2|"Am"e4cB|A2B2c2|"C"e2d2dc|"G"B3cB2|B4d2|
g4ga|g2f2g2|"Am"a2e2e2|a4ga|"D7"f3e fe|d2e2f2|"G"g3e ga|g4D2||
"G"G2B2dd|d2B2G2|"C"c2e2e2|c4ef|"G"g2d2(3BcB|G2[G2B2][D2G2]|"D7"[D4A4][F2A2]|[F4A4](3ABA|
"G"G2B2d2|d2B2G2|"C"c2e2e2|c4(3efe|"D7"d2f2fe|d2e2f2|"G"g3f ga|g4ef||
g2a2g2|"D"f4ef|"C"e2c2e2|"G"d4d2|"A7"^c2e2g2|b2a2ag|"D7"f3e fg|f4ef|
"G"g4ga|(3gagf2g2|"Am"a2e2e2|a4g2|"D7"f3e fe|d2e2f2|"G"g3f ga|g4z2||
% abcbook-tune_id 6342d53a8a936159570d16ad


% abcbook-boost 0
% abcbook-tablature 
% abcbook-transpose 
% abcbook-lastupdated 1665324392073
% abcbook-soundfonts 
% abcbook-repeats 1
% NFF Book 2013

